icons/modern/busts-in-silhouette.svg

<svg width="32" height="32" viewBox="0 0 32 32" fill="none" xmlns="http://www.w3.org/2000/svg">
<path d="M15.8918 30.3377C15.4072 30.3377 15.0065 30.3071 14.6603 30.216C14.5554 30.1883 14.4856 30.0915 14.4856 29.9831V27.23C14.4857 27.2195 14.4858 27.209 14.486 27.1984C14.4962 26.3043 14.5136 24.7781 16.22 23.8319C17.6126 23.0596 19.4691 22.4782 21.9075 22.459C21.9283 22.459 21.9492 22.4585 21.97 22.4586C21.9908 22.4585 22.0116 22.4585 22.0325 22.4585C24.4708 22.4777 26.3274 23.0596 27.72 23.8319C29.4263 24.7781 29.4438 26.3043 29.454 27.1984C29.4541 27.209 29.4542 27.2195 29.4543 27.23V29.9831C29.4543 30.0915 29.3846 30.1883 29.2797 30.216C28.9334 30.3071 28.5283 30.3377 28.0481 30.3377H15.8918Z" fill="url(#paint0_radial_5559_20883)"/>
<path d="M15.8918 30.3377C15.4072 30.3377 15.0065 30.3071 14.6603 30.216C14.5554 30.1883 14.4856 30.0915 14.4856 29.9831V27.23C14.4857 27.2195 14.4858 27.209 14.486 27.1984C14.4962 26.3043 14.5136 24.7781 16.22 23.8319C17.6126 23.0596 19.4691 22.4782 21.9075 22.459C21.9283 22.459 21.9492 22.4585 21.97 22.4586C21.9908 22.4585 22.0116 22.4585 22.0325 22.4585C24.4708 22.4777 26.3274 23.0596 27.72 23.8319C29.4263 24.7781 29.4438 26.3043 29.454 27.1984C29.4541 27.209 29.4542 27.2195 29.4543 27.23V29.9831C29.4543 30.0915 29.3846 30.1883 29.2797 30.216C28.9334 30.3071 28.5283 30.3377 28.0481 30.3377H15.8918Z" fill="url(#paint1_radial_5559_20883)"/>
<path d="M15.8918 30.3377C15.4072 30.3377 15.0065 30.3071 14.6603 30.216C14.5554 30.1883 14.4856 30.0915 14.4856 29.9831V27.23C14.4857 27.2195 14.4858 27.209 14.486 27.1984C14.4962 26.3043 14.5136 24.7781 16.22 23.8319C17.6126 23.0596 19.4691 22.4782 21.9075 22.459C21.9283 22.459 21.9492 22.4585 21.97 22.4586C21.9908 22.4585 22.0116 22.4585 22.0325 22.4585C24.4708 22.4777 26.3274 23.0596 27.72 23.8319C29.4263 24.7781 29.4438 26.3043 29.454 27.1984C29.4541 27.209 29.4542 27.2195 29.4543 27.23V29.9831C29.4543 30.0915 29.3846 30.1883 29.2797 30.216C28.9334 30.3071 28.5283 30.3377 28.0481 30.3377H15.8918Z" fill="url(#paint2_radial_5559_20883)"/>
<circle cx="17.2295" cy="16.4067" r="1.6995" fill="url(#paint3_radial_5559_20883)"/>
<circle cx="26.7104" cy="16.4067" r="1.6995" fill="url(#paint4_radial_5559_20883)"/>
<g filter="url(#filter0_f_5559_20883)">
<circle cx="26.7104" cy="16.4066" r="1.21393" fill="url(#paint5_radial_5559_20883)"/>
</g>
<g filter="url(#filter1_f_5559_20883)">
<circle cx="17.3692" cy="16.4066" r="1.21393" fill="#140F1A"/>
</g>
<path d="M17.011 19.2323L16.7253 13.0049C16.5796 10.765 18.0847 8.77103 21.0589 8.86815H22.9407C26.0969 8.86815 27.3533 10.8564 27.2137 13.0926L26.9313 19.2223C26.8034 21.2697 25.0529 22.8041 22.9164 22.8648H21.1076C18.9104 22.8648 17.1439 21.2755 17.011 19.2323Z" fill="url(#paint6_radial_5559_20883)"/>
<path d="M17.011 19.2323L16.7253 13.0049C16.5796 10.765 18.0847 8.77103 21.0589 8.86815H22.9407C26.0969 8.86815 27.3533 10.8564 27.2137 13.0926L26.9313 19.2223C26.8034 21.2697 25.0529 22.8041 22.9164 22.8648H21.1076C18.9104 22.8648 17.1439 21.2755 17.011 19.2323Z" fill="url(#paint7_radial_5559_20883)"/>
<path d="M3.0127 30.3377C2.5752 30.3377 2.12736 30.3071 1.7811 30.216C1.6762 30.1883 1.60645 30.0915 1.60645 29.9831V27.23C1.60657 27.2195 1.60669 27.209 1.60681 27.1984C1.61704 26.3043 1.6345 24.7781 3.34082 23.8319C4.73342 23.0596 6.58999 22.4782 9.02832 22.459C9.0492 22.459 9.07003 22.4585 9.09082 22.4586C9.11161 22.4585 9.13244 22.4585 9.15332 22.4585C11.5916 22.4777 13.4482 23.0596 14.8408 23.8319C16.5471 24.7781 16.5646 26.3043 16.5748 27.1984C16.575 27.209 16.5751 27.2195 16.5752 27.23V29.9831C16.5752 30.0915 16.5054 30.1883 16.4005 30.216C16.0543 30.3071 15.5908 30.3377 15.1689 30.3377H3.0127Z" fill="url(#paint8_radial_5559_20883)"/>
<path d="M3.0127 30.3377C2.5752 30.3377 2.12736 30.3071 1.7811 30.216C1.6762 30.1883 1.60645 30.0915 1.60645 29.9831V27.23C1.60657 27.2195 1.60669 27.209 1.60681 27.1984C1.61704 26.3043 1.6345 24.7781 3.34082 23.8319C4.73342 23.0596 6.58999 22.4782 9.02832 22.459C9.0492 22.459 9.07003 22.4585 9.09082 22.4586C9.11161 22.4585 9.13244 22.4585 9.15332 22.4585C11.5916 22.4777 13.4482 23.0596 14.8408 23.8319C16.5471 24.7781 16.5646 26.3043 16.5748 27.1984C16.575 27.209 16.5751 27.2195 16.5752 27.23V29.9831C16.5752 30.0915 16.5054 30.1883 16.4005 30.216C16.0543 30.3071 15.5908 30.3377 15.1689 30.3377H3.0127Z" fill="url(#paint9_radial_5559_20883)"/>
<path d="M3.0127 30.3377C2.5752 30.3377 2.12736 30.3071 1.7811 30.216C1.6762 30.1883 1.60645 30.0915 1.60645 29.9831V27.23C1.60657 27.2195 1.60669 27.209 1.60681 27.1984C1.61704 26.3043 1.6345 24.7781 3.34082 23.8319C4.73342 23.0596 6.58999 22.4782 9.02832 22.459C9.0492 22.459 9.07003 22.4585 9.09082 22.4586C9.11161 22.4585 9.13244 22.4585 9.15332 22.4585C11.5916 22.4777 13.4482 23.0596 14.8408 23.8319C16.5471 24.7781 16.5646 26.3043 16.5748 27.1984C16.575 27.209 16.5751 27.2195 16.5752 27.23V29.9831C16.5752 30.0915 16.5054 30.1883 16.4005 30.216C16.0543 30.3071 15.5908 30.3377 15.1689 30.3377H3.0127Z" fill="url(#paint10_radial_5559_20883)"/>
<circle cx="4.35038" cy="16.4067" r="1.6995" fill="url(#paint11_radial_5559_20883)"/>
<circle cx="13.8312" cy="16.4067" r="1.6995" fill="url(#paint12_radial_5559_20883)"/>
<g filter="url(#filter2_f_5559_20883)">
<circle cx="13.8312" cy="16.4066" r="1.21393" fill="url(#paint13_radial_5559_20883)"/>
</g>
<g filter="url(#filter3_f_5559_20883)">
<circle cx="4.49005" cy="16.4066" r="1.21393" fill="#140F1A"/>
</g>
<path d="M4.13188 19.2323L3.84614 13.0049C3.70044 10.765 5.20554 8.77103 8.17971 8.86815H10.0615C13.2177 8.86815 14.4742 10.8564 14.3345 13.0926L14.0521 19.2223C13.9243 21.2697 12.1737 22.8041 10.0372 22.8648H8.22847C6.03126 22.8648 4.26479 21.2755 4.13188 19.2323Z" fill="url(#paint14_radial_5559_20883)"/>
<path d="M4.13188 19.2323L3.84614 13.0049C3.70044 10.765 5.20554 8.77103 8.17971 8.86815H10.0615C13.2177 8.86815 14.4742 10.8564 14.3345 13.0926L14.0521 19.2223C13.9243 21.2697 12.1737 22.8041 10.0372 22.8648H8.22847C6.03126 22.8648 4.26479 21.2755 4.13188 19.2323Z" fill="url(#paint15_radial_5559_20883)"/>
<defs>
<filter id="filter0_f_5559_20883" x="25.2465" y="14.9427" width="2.92786" height="2.92786" filterUnits="userSpaceOnUse" color-interpolation-filters="sRGB">
<feFlood flood-opacity="0" result="BackgroundImageFix"/>
<feBlend mode="normal" in="SourceGraphic" in2="BackgroundImageFix" result="shape"/>
<feGaussianBlur stdDeviation="0.125" result="effect1_foregroundBlur_5559_20883"/>
</filter>
<filter id="filter1_f_5559_20883" x="15.9053" y="14.9427" width="2.92786" height="2.92786" filterUnits="userSpaceOnUse" color-interpolation-filters="sRGB">
<feFlood flood-opacity="0" result="BackgroundImageFix"/>
<feBlend mode="normal" in="SourceGraphic" in2="BackgroundImageFix" result="shape"/>
<feGaussianBlur stdDeviation="0.125" result="effect1_foregroundBlur_5559_20883"/>
</filter>
<filter id="filter2_f_5559_20883" x="12.3673" y="14.9427" width="2.92786" height="2.92786" filterUnits="userSpaceOnUse" color-interpolation-filters="sRGB">
<feFlood flood-opacity="0" result="BackgroundImageFix"/>
<feBlend mode="normal" in="SourceGraphic" in2="BackgroundImageFix" result="shape"/>
<feGaussianBlur stdDeviation="0.125" result="effect1_foregroundBlur_5559_20883"/>
</filter>
<filter id="filter3_f_5559_20883" x="3.02612" y="14.9427" width="2.92786" height="2.92786" filterUnits="userSpaceOnUse" color-interpolation-filters="sRGB">
<feFlood flood-opacity="0" result="BackgroundImageFix"/>
<feBlend mode="normal" in="SourceGraphic" in2="BackgroundImageFix" result="shape"/>
<feGaussianBlur stdDeviation="0.125" result="effect1_foregroundBlur_5559_20883"/>
</filter>
<radialGradient id="paint0_radial_5559_20883" cx="0" cy="0" r="1" gradientUnits="userSpaceOnUse" gradientTransform="translate(28.595 29.396) rotate(180) scale(9.65625 10.9688)">
<stop stop-color="#302B35"/>
<stop offset="0.362459" stop-color="#17111B"/>
</radialGradient>
<radialGradient id="paint1_radial_5559_20883" cx="0" cy="0" r="1" gradientUnits="userSpaceOnUse" gradientTransform="translate(28.7825 25.1772) rotate(105.668) scale(2.66139 5.54405)">
<stop offset="0.186089" stop-color="#3D3940"/>
<stop offset="1" stop-color="#3D3940" stop-opacity="0"/>
</radialGradient>
<radialGradient id="paint2_radial_5559_20883" cx="0" cy="0" r="1" gradientUnits="userSpaceOnUse" gradientTransform="translate(20.7512 22.2085) rotate(69.291) scale(2.7395 5.19692)">
<stop stop-color="#050208"/>
<stop offset="1" stop-color="#050208" stop-opacity="0"/>
</radialGradient>
<radialGradient id="paint3_radial_5559_20883" cx="0" cy="0" r="1" gradientUnits="userSpaceOnUse" gradientTransform="translate(17.2295 16.4067) rotate(90) scale(1.6995)">
<stop offset="0.521429" stop-color="#1A1420"/>
<stop offset="1" stop-color="#120E17"/>
</radialGradient>
<radialGradient id="paint4_radial_5559_20883" cx="0" cy="0" r="1" gradientUnits="userSpaceOnUse" gradientTransform="translate(27.8393 15.2413) rotate(111.508) scale(3.07929)">
<stop offset="0.262056" stop-color="#413949"/>
<stop offset="1" stop-color="#190E22"/>
</radialGradient>
<radialGradient id="paint5_radial_5559_20883" cx="0" cy="0" r="1" gradientUnits="userSpaceOnUse" gradientTransform="translate(26.7104 16.4066) rotate(90) scale(1.21393)">
<stop stop-color="#332C3A"/>
<stop offset="1" stop-color="#150921"/>
</radialGradient>
<radialGradient id="paint6_radial_5559_20883" cx="0" cy="0" r="1" gradientUnits="userSpaceOnUse" gradientTransform="translate(25.8241 10.1913) rotate(108.829) scale(13.39 10.6472)">
<stop offset="0.0971492" stop-color="#3C2B4F"/>
<stop offset="1" stop-color="#0B0410"/>
</radialGradient>
<radialGradient id="paint7_radial_5559_20883" cx="0" cy="0" r="1" gradientUnits="userSpaceOnUse" gradientTransform="translate(24.5374 11.3567) rotate(90) scale(1.23821 2.88184)">
<stop stop-color="#493E56"/>
<stop offset="1" stop-color="#493E56" stop-opacity="0"/>
</radialGradient>
<radialGradient id="paint8_radial_5559_20883" cx="0" cy="0" r="1" gradientUnits="userSpaceOnUse" gradientTransform="translate(15.7158 29.396) rotate(180) scale(9.65625 10.9687)">
<stop stop-color="#302B35"/>
<stop offset="0.362459" stop-color="#17111B"/>
</radialGradient>
<radialGradient id="paint9_radial_5559_20883" cx="0" cy="0" r="1" gradientUnits="userSpaceOnUse" gradientTransform="translate(15.9033 25.1772) rotate(105.668) scale(2.66139 5.54405)">
<stop offset="0.186089" stop-color="#3D3940"/>
<stop offset="1" stop-color="#3D3940" stop-opacity="0"/>
</radialGradient>
<radialGradient id="paint10_radial_5559_20883" cx="0" cy="0" r="1" gradientUnits="userSpaceOnUse" gradientTransform="translate(7.87207 22.2085) rotate(69.291) scale(2.7395 5.19692)">
<stop stop-color="#050208"/>
<stop offset="1" stop-color="#050208" stop-opacity="0"/>
</radialGradient>
<radialGradient id="paint11_radial_5559_20883" cx="0" cy="0" r="1" gradientUnits="userSpaceOnUse" gradientTransform="translate(4.35038 16.4067) rotate(90) scale(1.6995)">
<stop offset="0.521429" stop-color="#1A1420"/>
<stop offset="1" stop-color="#120E17"/>
</radialGradient>
<radialGradient id="paint12_radial_5559_20883" cx="0" cy="0" r="1" gradientUnits="userSpaceOnUse" gradientTransform="translate(14.9602 15.2413) rotate(111.508) scale(3.07929)">
<stop offset="0.262056" stop-color="#413949"/>
<stop offset="1" stop-color="#190E22"/>
</radialGradient>
<radialGradient id="paint13_radial_5559_20883" cx="0" cy="0" r="1" gradientUnits="userSpaceOnUse" gradientTransform="translate(13.8312 16.4066) rotate(90) scale(1.21393)">
<stop stop-color="#332C3A"/>
<stop offset="1" stop-color="#150921"/>
</radialGradient>
<radialGradient id="paint14_radial_5559_20883" cx="0" cy="0" r="1" gradientUnits="userSpaceOnUse" gradientTransform="translate(12.945 10.1913) rotate(108.829) scale(13.39 10.6472)">
<stop offset="0.0971492" stop-color="#3C2B4F"/>
<stop offset="1" stop-color="#0B0410"/>
</radialGradient>
<radialGradient id="paint15_radial_5559_20883" cx="0" cy="0" r="1" gradientUnits="userSpaceOnUse" gradientTransform="translate(11.6582 11.3567) rotate(90) scale(1.23821 2.88184)">
<stop stop-color="#493E56"/>
<stop offset="1" stop-color="#493E56" stop-opacity="0"/>
</radialGradient>
</defs>
</svg>

<svg width="32" height="32" fill="none" xmlns="http://www.w3.org/2000/svg"><path d="M15.892 30.338c-.485 0-.885-.03-1.232-.122a.238.238 0 0 1-.174-.233v-2.785c.01-.894.028-2.42 1.734-3.366 1.393-.772 3.25-1.354 5.688-1.373h.125c2.438.019 4.294.6 5.687 1.373 1.706.946 1.724 2.472 1.734 3.366v2.785c0 .108-.07.205-.174.233-.347.091-.752.122-1.232.122H15.892Z" fill="url(#a)"/><path d="M15.892 30.338c-.485 0-.885-.03-1.232-.122a.238.238 0 0 1-.174-.233v-2.785c.01-.894.028-2.42 1.734-3.366 1.393-.772 3.25-1.354 5.688-1.373h.125c2.438.019 4.294.6 5.687 1.373 1.706.946 1.724 2.472 1.734 3.366v2.785c0 .108-.07.205-.174.233-.347.091-.752.122-1.232.122H15.892Z" fill="url(#b)"/><path d="M15.892 30.338c-.485 0-.885-.03-1.232-.122a.238.238 0 0 1-.174-.233v-2.785c.01-.894.028-2.42 1.734-3.366 1.393-.772 3.25-1.354 5.688-1.373h.125c2.438.019 4.294.6 5.687 1.373 1.706.946 1.724 2.472 1.734 3.366v2.785c0 .108-.07.205-.174.233-.347.091-.752.122-1.232.122H15.892Z" fill="url(#c)"/><circle cx="17.23" cy="16.407" r="1.7" fill="url(#d)"/><circle cx="26.71" cy="16.407" r="1.7" fill="url(#e)"/><g filter="url(#f)"><circle cx="26.71" cy="16.407" r="1.214" fill="url(#g)"/></g><g filter="url(#h)"><circle cx="17.369" cy="16.407" r="1.214" fill="#140F1A"/></g><path d="m17.011 19.232-.286-6.227c-.145-2.24 1.36-4.234 4.334-4.137h1.882c3.156 0 4.412 1.988 4.273 4.225l-.283 6.13c-.128 2.047-1.878 3.581-4.015 3.642h-1.808c-2.198 0-3.964-1.59-4.097-3.633Z" fill="url(#i)"/><path d="m17.011 19.232-.286-6.227c-.145-2.24 1.36-4.234 4.334-4.137h1.882c3.156 0 4.412 1.988 4.273 4.225l-.283 6.13c-.128 2.047-1.878 3.581-4.015 3.642h-1.808c-2.198 0-3.964-1.59-4.097-3.633Z" fill="url(#j)"/><path d="M3.013 30.338c-.438 0-.886-.03-1.232-.122a.238.238 0 0 1-.175-.233v-2.785c.011-.894.028-2.42 1.735-3.366 1.392-.772 3.249-1.354 5.687-1.373h.125c2.439.019 4.295.6 5.688 1.373 1.706.946 1.724 2.472 1.734 3.366v2.785c0 .108-.07.205-.174.233-.347.091-.81.122-1.232.122H3.013Z" fill="url(#k)"/><path d="M3.013 30.338c-.438 0-.886-.03-1.232-.122a.238.238 0 0 1-.175-.233v-2.785c.011-.894.028-2.42 1.735-3.366 1.392-.772 3.249-1.354 5.687-1.373h.125c2.439.019 4.295.6 5.688 1.373 1.706.946 1.724 2.472 1.734 3.366v2.785c0 .108-.07.205-.174.233-.347.091-.81.122-1.232.122H3.013Z" fill="url(#l)"/><path d="M3.013 30.338c-.438 0-.886-.03-1.232-.122a.238.238 0 0 1-.175-.233v-2.785c.011-.894.028-2.42 1.735-3.366 1.392-.772 3.249-1.354 5.687-1.373h.125c2.439.019 4.295.6 5.688 1.373 1.706.946 1.724 2.472 1.734 3.366v2.785c0 .108-.07.205-.174.233-.347.091-.81.122-1.232.122H3.013Z" fill="url(#m)"/><circle cx="4.35" cy="16.407" r="1.7" fill="url(#n)"/><circle cx="13.831" cy="16.407" r="1.7" fill="url(#o)"/><g filter="url(#p)"><circle cx="13.831" cy="16.407" r="1.214" fill="url(#q)"/></g><g filter="url(#r)"><circle cx="4.49" cy="16.407" r="1.214" fill="#140F1A"/></g><path d="m4.132 19.232-.286-6.227C3.7 10.765 5.206 8.77 8.18 8.868h1.882c3.156 0 4.412 1.988 4.273 4.225l-.283 6.13c-.128 2.047-1.878 3.581-4.015 3.642H8.228c-2.197 0-3.963-1.59-4.096-3.633Z" fill="url(#s)"/><path d="m4.132 19.232-.286-6.227C3.7 10.765 5.206 8.77 8.18 8.868h1.882c3.156 0 4.412 1.988 4.273 4.225l-.283 6.13c-.128 2.047-1.878 3.581-4.015 3.642H8.228c-2.197 0-3.963-1.59-4.096-3.633Z" fill="url(#t)"/><defs><radialGradient id="a" cx="0" cy="0" r="1" gradientUnits="userSpaceOnUse" gradientTransform="matrix(-9.65625 0 0 -10.9688 28.595 29.396)"><stop stop-color="#302B35"/><stop offset=".362" stop-color="#17111B"/></radialGradient><radialGradient id="b" cx="0" cy="0" r="1" gradientUnits="userSpaceOnUse" gradientTransform="matrix(-.71874 2.5625 -5.33805 -1.49724 28.782 25.177)"><stop offset=".186" stop-color="#3D3940"/><stop offset="1" stop-color="#3D3940" stop-opacity="0"/></radialGradient><radialGradient id="c" cx="0" cy="0" r="1" gradientUnits="userSpaceOnUse" gradientTransform="rotate(69.291 -5.694 26.119) scale(2.7395 5.19692)"><stop stop-color="#050208"/><stop offset="1" stop-color="#050208" stop-opacity="0"/></radialGradient><radialGradient id="d" cx="0" cy="0" r="1" gradientUnits="userSpaceOnUse" gradientTransform="rotate(90 .411 16.818) scale(1.6995)"><stop offset=".521" stop-color="#1A1420"/><stop offset="1" stop-color="#120E17"/></radialGradient><radialGradient id="e" cx="0" cy="0" r="1" gradientUnits="userSpaceOnUse" gradientTransform="rotate(111.508 8.732 17.097) scale(3.07929)"><stop offset=".262" stop-color="#413949"/><stop offset="1" stop-color="#190E22"/></radialGradient><radialGradient id="g" cx="0" cy="0" r="1" gradientUnits="userSpaceOnUse" gradientTransform="rotate(90 5.152 21.559) scale(1.21393)"><stop stop-color="#332C3A"/><stop offset="1" stop-color="#150921"/></radialGradient><radialGradient id="i" cx="0" cy="0" r="1" gradientUnits="userSpaceOnUse" gradientTransform="matrix(-4.32155 12.67345 -10.07743 -3.43633 25.824 10.191)"><stop offset=".097" stop-color="#3C2B4F"/><stop offset="1" stop-color="#0B0410"/></radialGradient><radialGradient id="j" cx="0" cy="0" r="1" gradientUnits="userSpaceOnUse" gradientTransform="matrix(0 1.23821 -2.88184 0 24.537 11.357)"><stop stop-color="#493E56"/><stop offset="1" stop-color="#493E56" stop-opacity="0"/></radialGradient><radialGradient id="k" cx="0" cy="0" r="1" gradientUnits="userSpaceOnUse" gradientTransform="matrix(-9.65625 0 0 -10.9687 15.716 29.396)"><stop stop-color="#302B35"/><stop offset=".362" stop-color="#17111B"/></radialGradient><radialGradient id="l" cx="0" cy="0" r="1" gradientUnits="userSpaceOnUse" gradientTransform="matrix(-.71874 2.5625 -5.33805 -1.49724 15.903 25.177)"><stop offset=".186" stop-color="#3D3940"/><stop offset="1" stop-color="#3D3940" stop-opacity="0"/></radialGradient><radialGradient id="m" cx="0" cy="0" r="1" gradientUnits="userSpaceOnUse" gradientTransform="rotate(69.291 -12.133 16.8) scale(2.7395 5.19692)"><stop stop-color="#050208"/><stop offset="1" stop-color="#050208" stop-opacity="0"/></radialGradient><radialGradient id="n" cx="0" cy="0" r="1" gradientUnits="userSpaceOnUse" gradientTransform="rotate(90 -6.028 10.379) scale(1.6995)"><stop offset=".521" stop-color="#1A1420"/><stop offset="1" stop-color="#120E17"/></radialGradient><radialGradient id="o" cx="0" cy="0" r="1" gradientUnits="userSpaceOnUse" gradientTransform="rotate(111.508 2.292 12.713) scale(3.07929)"><stop offset=".262" stop-color="#413949"/><stop offset="1" stop-color="#190E22"/></radialGradient><radialGradient id="q" cx="0" cy="0" r="1" gradientUnits="userSpaceOnUse" gradientTransform="rotate(90 -1.288 15.119) scale(1.21393)"><stop stop-color="#332C3A"/><stop offset="1" stop-color="#150921"/></radialGradient><radialGradient id="s" cx="0" cy="0" r="1" gradientUnits="userSpaceOnUse" gradientTransform="matrix(-4.32155 12.67345 -10.07743 -3.43633 12.945 10.191)"><stop offset=".097" stop-color="#3C2B4F"/><stop offset="1" stop-color="#0B0410"/></radialGradient><radialGradient id="t" cx="0" cy="0" r="1" gradientUnits="userSpaceOnUse" gradientTransform="matrix(0 1.23821 -2.88184 0 11.658 11.357)"><stop stop-color="#493E56"/><stop offset="1" stop-color="#493E56" stop-opacity="0"/></radialGradient><filter id="f" x="25.247" y="14.943" width="2.928" height="2.928" filterUnits="userSpaceOnUse" color-interpolation-filters="sRGB"><feFlood flood-opacity="0" result="BackgroundImageFix"/><feBlend in="SourceGraphic" in2="BackgroundImageFix" result="shape"/><feGaussianBlur stdDeviation=".125" result="effect1_foregroundBlur_5559_20883"/></filter><filter id="h" x="15.905" y="14.943" width="2.928" height="2.928" filterUnits="userSpaceOnUse" color-interpolation-filters="sRGB"><feFlood flood-opacity="0" result="BackgroundImageFix"/><feBlend in="SourceGraphic" in2="BackgroundImageFix" result="shape"/><feGaussianBlur stdDeviation=".125" result="effect1_foregroundBlur_5559_20883"/></filter><filter id="p" x="12.367" y="14.943" width="2.928" height="2.928" filterUnits="userSpaceOnUse" color-interpolation-filters="sRGB"><feFlood flood-opacity="0" result="BackgroundImageFix"/><feBlend in="SourceGraphic" in2="BackgroundImageFix" result="shape"/><feGaussianBlur stdDeviation=".125" result="effect1_foregroundBlur_5559_20883"/></filter><filter id="r" x="3.026" y="14.943" width="2.928" height="2.928" filterUnits="userSpaceOnUse" color-interpolation-filters="sRGB"><feFlood flood-opacity="0" result="BackgroundImageFix"/><feBlend in="SourceGraphic" in2="BackgroundImageFix" result="shape"/><feGaussianBlur stdDeviation=".125" result="effect1_foregroundBlur_5559_20883"/></filter></defs></svg>
